Newaita-dark/apps/48/preferences-system-privacy.svg

<svg height="48" viewBox="0 0 48 48" width="48" xmlns="http://www.w3.org/2000/svg" xmlns:xlink="http://www.w3.org/1999/xlink"><linearGradient id="a"><stop offset="0" stop-opacity=".313726"/><stop offset=".222222" stop-opacity=".27451"/><stop offset="1" stop-opacity="0"/></linearGradient><radialGradient id="b" cx="450.908936" cy="189.579361" gradientTransform="matrix(.00000026 -.117199 -.210958 -.00000015 66.784728 95.392994)" gradientUnits="userSpaceOnUse" r="21.166656" xlink:href="#a"/><radialGradient id="c" cx="450.908936" cy="189.579361" gradientTransform="matrix(-.00000026 .117199 .210958 .00000015 -19.155178 -11.291223)" gradientUnits="userSpaceOnUse" r="21.166656" xlink:href="#a"/><radialGradient id="d" cx="450.908936" cy="189.579361" gradientTransform="matrix(-.00000026 -.117199 .210958 -.00000015 -19.155178 95.392994)" gradientUnits="userSpaceOnUse" r="21.166656" xlink:href="#a"/><radialGradient id="e" cx="450.908936" cy="189.579361" gradientTransform="matrix(.00000026 .117199 -.210958 .00000015 66.784725 -11.291224)" gradientUnits="userSpaceOnUse" r="21.166656" xlink:href="#a"/><linearGradient id="f" gradientTransform="matrix(.0200401 0 0 .093759 18.698079 20.158175)" gradientUnits="userSpaceOnUse" x1="255.323059" x2="255.323044" y1="233.5" y2="254.666656"><stop offset="0" stop-opacity=".27451"/><stop offset="1" stop-opacity="0"/></linearGradient><linearGradient id="g" gradientUnits="userSpaceOnUse" x1="254" x2="254" y1="-168.666672" y2="233.5"><stop offset="0" stop-color="#616161"/><stop offset="1" stop-color="#424242"/></linearGradient><linearGradient id="h" gradientUnits="userSpaceOnUse" x1="23.814816" x2="23.81481751323" y1="42.05098880616" y2="4.34419566504"><stop offset="0" stop-color="#ab47bc"/><stop offset="1" stop-color="#ba68c8"/></linearGradient><path d="m27.289062 42.050781h3.96875v-1.984375h-3.96875zm0 0" fill="url(#b)"/><path d="m20.339844 42.050781h-3.96875v1.984375h3.96875zm0 0" fill="url(#c)"/><path d="m20.339844 42.050781h-3.96875v-1.984375h3.96875zm0 0" fill="url(#d)"/><path d="m27.289062 42.050781h3.96875v1.984375h-3.96875zm0 0" fill="url(#e)"/><path d="m20.339844 41.554688h6.949218v2.480468h-6.949218zm0 0" fill="url(#f)"/><path d="m254.017409-168.671091c111.031064 0 201.064133 90.033069 201.064133 201.105795 0 111.031064-90.033069 201.064133-201.064133 201.064133-111.072726 0-201.105795-90.033069-201.105795-201.064133 0-111.072726 90.033069-201.105795 201.105795-201.105795zm0 0" fill="url(#g)" stroke="#333" stroke-linecap="round" stroke-width="3" transform="matrix(.093759 0 0 .093759 0 20.158175)"/><path d="m23.816406 41.925781c-10.445312 0-18.855468-8.40625-18.855468-18.851562 0-.0625 0-.125 0-.183594.101562 10.355469 8.472656 18.667969 18.855468 18.667969 10.382813 0 18.753906-8.3125 18.851563-18.667969v.183594c0 10.445312-8.410157 18.851562-18.851563 18.851562zm0 0" fill-opacity=".196078"/><path d="m23.816406 4.46875c-10.445312 0-18.855468 8.40625-18.855468 18.851562v.1875c.101562-10.359374 8.472656-18.671874 18.855468-18.671874 10.382813 0 18.753906 8.3125 18.851563 18.671874 0-.0625 0-.125 0-.1875 0-10.445312-8.410157-18.851562-18.851563-18.851562zm0 0" fill="#fff" fill-opacity=".392157"/><path d="m23.816406 4.203125c-10.523437 0-18.996094 8.472656-18.996094 18.996094 0 10.519531 8.472657 18.992187 18.996094 18.992187 10.519532 0 18.992188-8.472656 18.992188-18.992187 0-10.523438-8.472656-18.996094-18.992188-18.996094zm0 .28125c10.367188 0 18.710938 8.34375 18.710938 18.714844 0 10.367187-8.34375 18.710937-18.710938 18.710937-10.371094 0-18.714844-8.34375-18.714844-18.710937 0-10.371094 8.34375-18.714844 18.714844-18.714844zm0 0" fill="#212121"/><path d="m11.90625 17.242188c-1.097656 0-1.984375.886718-1.984375 1.984374v3.972657.054687c.039063 3.273438 3.121094 5.898438 6.945313 5.898438 2.480468 0 5.957031-1.175782 5.957031-3.96875 0-.550782.441406-.992188.992187-.992188.546875 0 .992188.441406.992188.992188 0 2.792968 3.472656 3.96875 5.953125 3.96875 3.824219 0 6.910156-2.625 6.945312-5.898438 0-.019531 0-.039062 0-.054687v-3.972657c0-1.097656-.886719-1.984374-1.984375-1.984374h-4.960937c-2.066407 0-3.914063.765624-5.1875 1.984374h-3.519531c-1.269532-1.21875-3.121094-1.984374-5.1875-1.984374zm4.960938 2.976562c2.199218 0 3.972656 1.328125 3.972656 2.980469 0 1.648437-1.773438 2.976562-3.972656 2.976562-2.199219 0-3.96875-1.328125-3.96875-2.976562 0-1.652344 1.769531-2.980469 3.96875-2.980469zm13.894531 0c2.199219 0 3.96875 1.328125 3.96875 2.980469 0 1.648437-1.769531 2.976562-3.96875 2.976562s-3.96875-1.328125-3.96875-2.976562c0-1.652344 1.769531-2.980469 3.96875-2.980469zm0 0" fill="url(#h)"/><path d="m11.90625 17.242188c-1.097656 0-1.984375.886718-1.984375 1.984374v.746094c0-1.097656.886719-1.984375 1.984375-1.984375h4.960938c2.066406 0 3.917968.765625 5.1875 1.984375h3.519531c1.273437-1.21875 3.121093-1.984375 5.1875-1.984375h4.960937c1.097656 0 1.984375.886719 1.984375 1.984375v-.746094c0-1.097656-.886719-1.984374-1.984375-1.984374h-4.960937c-2.066407 0-3.914063.765624-5.1875 1.984374h-3.519531c-1.269532-1.21875-3.121094-1.984374-5.1875-1.984374zm1.023438 6.328124c-.019532.121094-.03125.246094-.03125.371094 0 1.648438 1.769531 2.976563 3.96875 2.976563 2.199218 0 3.972656-1.328125 3.972656-2.976563 0-.125-.011719-.25-.03125-.371094-.242188 1.472657-1.910156 2.605469-3.941406 2.605469-2.027344 0-3.695313-1.132812-3.9375-2.605469zm13.890624 0c-.019531.121094-.027343.246094-.027343.371094 0 1.648438 1.769531 2.976563 3.96875 2.976563s3.96875-1.328125 3.96875-2.976563c0-.125-.011719-.25-.03125-.371094-.242188 1.472657-1.90625 2.605469-3.9375 2.605469s-3.695313-1.132812-3.941407-2.605469zm0 0" fill="#fff" fill-opacity=".392157"/><path d="m16.867188 20.21875c-2.199219 0-3.96875 1.328125-3.96875 2.980469 0 .167969.019531.332031.054687.496093.316406-1.414062 1.941406-2.480468 3.914063-2.480468 1.976562 0 3.601562 1.066406 3.917968 2.480468.035156-.164062.054688-.328124.054688-.496093 0-1.652344-1.773438-2.980469-3.972656-2.980469zm13.894531 0c-2.199219 0-3.96875 1.328125-3.96875 2.980469 0 .167969.015625.332031.054687.496093.3125-1.414062 1.941406-2.480468 3.914063-2.480468 1.972656 0 3.601562 1.066406 3.914062 2.480468.035157-.164062.054688-.328124.054688-.496093 0-1.652344-1.769531-2.980469-3.96875-2.980469zm-20.839844 2.980469v.992187.054688c.039063 3.273437 3.121094 5.898437 6.945313 5.898437 2.480468 0 5.957031-1.175781 5.957031-3.96875 0-.550781.441406-.992187.992187-.992187.546875 0 .992188.441406.992188.992187 0 2.792969 3.472656 3.96875 5.953125 3.96875 3.824219 0 6.910156-2.625 6.945312-5.898437 0-.019532 0-.039063 0-.054688v-.992187.054687c-.035156 3.273438-3.121093 5.898438-6.945312 5.898438-2.480469 0-5.953125-1.175782-5.953125-3.96875 0-.550782-.445313-.992188-.992188-.992188-.550781 0-.992187.441406-.992187.992188 0 2.792968-3.476563 3.96875-5.957031 3.96875-3.824219 0-6.90625-2.625-6.945313-5.898438 0-.019531 0-.039062 0-.054687zm0 0" fill-opacity=".235294"/><path d="m126.987873-31.100895c-11.707215 0-21.164645 9.45743-21.164645 21.164646v42.370953.583278c.416627 34.913333 33.288487 62.910659 74.076259 62.910659 26.455807 0 63.535599-12.540469 63.535599-42.329291 0-5.874439 4.707884-10.582323 10.582323-10.582323 5.832777 0 10.582323 4.707884 10.582323 10.582323 0 29.788822 37.03813 42.329291 63.493937 42.329291 40.787771 0 73.701295-27.997326 74.076259-62.910659 0-.208313 0-.416627 0-.583278v-42.370953c0-11.707216-9.45743-21.164646-21.164646-21.164646h-52.911613c-22.039562 0-41.746014 8.165887-55.32805 21.164646h-37.538082c-13.540374-12.998759-33.288488-21.164646-55.32805-21.164646zm52.911614 31.746968c23.456094 0 42.370954 14.165314 42.370954 31.788631 0 17.581655-18.91486 31.746969-42.370954 31.746969-23.456093 0-42.329291-14.165314-42.329291-31.746969 0-17.623317 18.873198-31.788631 42.329291-31.788631zm148.194182 0c23.456093 0 42.329291 14.165314 42.329291 31.788631 0 17.581655-18.873198 31.746969-42.329291 31.746969-23.456094 0-42.329291-14.165314-42.329291-31.746969 0-17.623317 18.873197-31.788631 42.329291-31.788631zm0 0" fill="none" stroke="#212121" stroke-linecap="round" stroke-linejoin="round" stroke-width="3" transform="matrix(.093759 0 0 .093759 0 20.158175)"/></svg>

<?xml version="1.0" encoding="UTF-8"?>
<svg xmlns="http://www.w3.org/2000/svg" xmlns:xlink="http://www.w3.org/1999/xlink" width="48px" height="48px" viewBox="0 0 48 48" version="1.1">
<defs>
<radialGradient id="radial0" gradientUnits="userSpaceOnUse" cx="450.908936" cy="189.579361" fx="450.908936" fy="189.579361" r="21.166656" gradientTransform="matrix(0.000000261256,-0.117199,-0.210958,-0.000000152308,66.784728,95.392994)">
<stop offset="0" style="stop-color:rgb(0%,0%,0%);stop-opacity:0.313726;"/>
<stop offset="0.222222" style="stop-color:rgb(0%,0%,0%);stop-opacity:0.27451;"/>
<stop offset="1" style="stop-color:rgb(0%,0%,0%);stop-opacity:0;"/>
</radialGradient>
<radialGradient id="radial1" gradientUnits="userSpaceOnUse" cx="450.908936" cy="189.579361" fx="450.908936" fy="189.579361" r="21.166656" gradientTransform="matrix(-0.000000261256,0.117199,0.210958,0.000000152308,-19.155178,-11.291223)">
<stop offset="0" style="stop-color:rgb(0%,0%,0%);stop-opacity:0.313726;"/>
<stop offset="0.222222" style="stop-color:rgb(0%,0%,0%);stop-opacity:0.27451;"/>
<stop offset="1" style="stop-color:rgb(0%,0%,0%);stop-opacity:0;"/>
</radialGradient>
<radialGradient id="radial2" gradientUnits="userSpaceOnUse" cx="450.908936" cy="189.579361" fx="450.908936" fy="189.579361" r="21.166656" gradientTransform="matrix(-0.000000261256,-0.117199,0.210958,-0.000000152308,-19.155178,95.392994)">
<stop offset="0" style="stop-color:rgb(0%,0%,0%);stop-opacity:0.313726;"/>
<stop offset="0.222222" style="stop-color:rgb(0%,0%,0%);stop-opacity:0.27451;"/>
<stop offset="1" style="stop-color:rgb(0%,0%,0%);stop-opacity:0;"/>
</radialGradient>
<radialGradient id="radial3" gradientUnits="userSpaceOnUse" cx="450.908936" cy="189.579361" fx="450.908936" fy="189.579361" r="21.166656" gradientTransform="matrix(0.000000261256,0.117199,-0.210958,0.000000152308,66.784725,-11.291224)">
<stop offset="0" style="stop-color:rgb(0%,0%,0%);stop-opacity:0.313726;"/>
<stop offset="0.222222" style="stop-color:rgb(0%,0%,0%);stop-opacity:0.27451;"/>
<stop offset="1" style="stop-color:rgb(0%,0%,0%);stop-opacity:0;"/>
</radialGradient>
<linearGradient id="linear0" gradientUnits="userSpaceOnUse" x1="255.323059" y1="233.5" x2="255.323044" y2="254.666656" gradientTransform="matrix(0.0200401,0,0,0.093759,18.698079,20.158175)">
<stop offset="0" style="stop-color:rgb(0%,0%,0%);stop-opacity:0.27451;"/>
<stop offset="1" style="stop-color:rgb(0%,0%,0%);stop-opacity:0;"/>
</linearGradient>
<linearGradient id="linear1" gradientUnits="userSpaceOnUse" x1="254" y1="-168.666672" x2="254" y2="233.5" gradientTransform="matrix(1,0,0,1,0,0)">
<stop offset="0" style="stop-color:rgb(38.039216%,38.039216%,38.039216%);stop-opacity:1;"/>
<stop offset="1" style="stop-color:rgb(25.882354%,25.882354%,25.882354%);stop-opacity:1;"/>
</linearGradient>
<linearGradient id="linear2" gradientUnits="userSpaceOnUse" x1="960" y1="1695.118164" x2="960.000061" y2="175.118118" gradientTransform="matrix(0.0248071,0,0,0.0248071,0.0000000343783,0.0000228904)">
<stop offset="0" style="stop-color:rgb(67.058825%,27.843139%,73.725492%);stop-opacity:1;"/>
<stop offset="1" style="stop-color:rgb(72.941178%,40.784314%,78.431374%);stop-opacity:1;"/>
</linearGradient>
</defs>
<g id="surface1">
<path style=" stroke:none;fill-rule:nonzero;fill:url(#radial0);" d="M 27.289062 42.050781 L 31.257812 42.050781 L 31.257812 40.066406 L 27.289062 40.066406 Z M 27.289062 42.050781 "/>
<path style=" stroke:none;fill-rule:nonzero;fill:url(#radial1);" d="M 20.339844 42.050781 L 16.371094 42.050781 L 16.371094 44.035156 L 20.339844 44.035156 Z M 20.339844 42.050781 "/>
<path style=" stroke:none;fill-rule:nonzero;fill:url(#radial2);" d="M 20.339844 42.050781 L 16.371094 42.050781 L 16.371094 40.066406 L 20.339844 40.066406 Z M 20.339844 42.050781 "/>
<path style=" stroke:none;fill-rule:nonzero;fill:url(#radial3);" d="M 27.289062 42.050781 L 31.257812 42.050781 L 31.257812 44.035156 L 27.289062 44.035156 Z M 27.289062 42.050781 "/>
<path style=" stroke:none;fill-rule:nonzero;fill:url(#linear0);" d="M 20.339844 41.554688 L 27.289062 41.554688 L 27.289062 44.035156 L 20.339844 44.035156 Z M 20.339844 41.554688 "/>
<path style="fill-rule:nonzero;fill:url(#linear1);stroke-width:3;stroke-linecap:round;stroke-linejoin:miter;stroke:rgb(20%,20%,20%);stroke-opacity:1;stroke-miterlimit:4;" d="M 254.017409 -168.671091 C 365.048473 -168.671091 455.081542 -78.638022 455.081542 32.434704 C 455.081542 143.465768 365.048473 233.498837 254.017409 233.498837 C 142.944683 233.498837 52.911614 143.465768 52.911614 32.434704 C 52.911614 -78.638022 142.944683 -168.671091 254.017409 -168.671091 Z M 254.017409 -168.671091 " transform="matrix(0.093759,0,0,0.093759,0,20.158175)"/>
<path style=" stroke:none;fill-rule:nonzero;fill:rgb(0%,0%,0%);fill-opacity:0.196078;" d="M 23.816406 41.925781 C 13.371094 41.925781 4.960938 33.519531 4.960938 23.074219 C 4.960938 23.011719 4.960938 22.949219 4.960938 22.890625 C 5.0625 33.246094 13.433594 41.558594 23.816406 41.558594 C 34.199219 41.558594 42.570312 33.246094 42.667969 22.890625 C 42.667969 22.949219 42.667969 23.011719 42.667969 23.074219 C 42.667969 33.519531 34.257812 41.925781 23.816406 41.925781 Z M 23.816406 41.925781 "/>
<path style=" stroke:none;fill-rule:nonzero;fill:rgb(100%,100%,100%);fill-opacity:0.392157;" d="M 23.816406 4.46875 C 13.371094 4.46875 4.960938 12.875 4.960938 23.320312 C 4.960938 23.382812 4.960938 23.445312 4.960938 23.507812 C 5.0625 13.148438 13.433594 4.835938 23.816406 4.835938 C 34.199219 4.835938 42.570312 13.148438 42.667969 23.507812 C 42.667969 23.445312 42.667969 23.382812 42.667969 23.320312 C 42.667969 12.875 34.257812 4.46875 23.816406 4.46875 Z M 23.816406 4.46875 "/>
<path style=" stroke:none;fill-rule:nonzero;fill:rgb(12.941177%,12.941177%,12.941177%);fill-opacity:1;" d="M 23.816406 4.203125 C 13.292969 4.203125 4.820312 12.675781 4.820312 23.199219 C 4.820312 33.71875 13.292969 42.191406 23.816406 42.191406 C 34.335938 42.191406 42.808594 33.71875 42.808594 23.199219 C 42.808594 12.675781 34.335938 4.203125 23.816406 4.203125 Z M 23.816406 4.484375 C 34.183594 4.484375 42.527344 12.828125 42.527344 23.199219 C 42.527344 33.566406 34.183594 41.910156 23.816406 41.910156 C 13.445312 41.910156 5.101562 33.566406 5.101562 23.199219 C 5.101562 12.828125 13.445312 4.484375 23.816406 4.484375 Z M 23.816406 4.484375 "/>
<path style=" stroke:none;fill-rule:nonzero;fill:url(#linear2);" d="M 11.90625 17.242188 C 10.808594 17.242188 9.921875 18.128906 9.921875 19.226562 L 9.921875 23.199219 C 9.921875 23.214844 9.921875 23.234375 9.921875 23.253906 C 9.960938 26.527344 13.042969 29.152344 16.867188 29.152344 C 19.347656 29.152344 22.824219 27.976562 22.824219 25.183594 C 22.824219 24.632812 23.265625 24.191406 23.816406 24.191406 C 24.363281 24.191406 24.808594 24.632812 24.808594 25.183594 C 24.808594 27.976562 28.28125 29.152344 30.761719 29.152344 C 34.585938 29.152344 37.671875 26.527344 37.707031 23.253906 C 37.707031 23.234375 37.707031 23.214844 37.707031 23.199219 L 37.707031 19.226562 C 37.707031 18.128906 36.820312 17.242188 35.722656 17.242188 L 30.761719 17.242188 C 28.695312 17.242188 26.847656 18.007812 25.574219 19.226562 L 22.054688 19.226562 C 20.785156 18.007812 18.933594 17.242188 16.867188 17.242188 Z M 16.867188 20.21875 C 19.066406 20.21875 20.839844 21.546875 20.839844 23.199219 C 20.839844 24.847656 19.066406 26.175781 16.867188 26.175781 C 14.667969 26.175781 12.898438 24.847656 12.898438 23.199219 C 12.898438 21.546875 14.667969 20.21875 16.867188 20.21875 Z M 30.761719 20.21875 C 32.960938 20.21875 34.730469 21.546875 34.730469 23.199219 C 34.730469 24.847656 32.960938 26.175781 30.761719 26.175781 C 28.5625 26.175781 26.792969 24.847656 26.792969 23.199219 C 26.792969 21.546875 28.5625 20.21875 30.761719 20.21875 Z M 30.761719 20.21875 "/>
<path style=" stroke:none;fill-rule:nonzero;fill:rgb(100%,100%,100%);fill-opacity:0.392157;" d="M 11.90625 17.242188 C 10.808594 17.242188 9.921875 18.128906 9.921875 19.226562 L 9.921875 19.972656 C 9.921875 18.875 10.808594 17.988281 11.90625 17.988281 L 16.867188 17.988281 C 18.933594 17.988281 20.785156 18.753906 22.054688 19.972656 L 25.574219 19.972656 C 26.847656 18.753906 28.695312 17.988281 30.761719 17.988281 L 35.722656 17.988281 C 36.820312 17.988281 37.707031 18.875 37.707031 19.972656 L 37.707031 19.226562 C 37.707031 18.128906 36.820312 17.242188 35.722656 17.242188 L 30.761719 17.242188 C 28.695312 17.242188 26.847656 18.007812 25.574219 19.226562 L 22.054688 19.226562 C 20.785156 18.007812 18.933594 17.242188 16.867188 17.242188 Z M 12.929688 23.570312 C 12.910156 23.691406 12.898438 23.816406 12.898438 23.941406 C 12.898438 25.589844 14.667969 26.917969 16.867188 26.917969 C 19.066406 26.917969 20.839844 25.589844 20.839844 23.941406 C 20.839844 23.816406 20.828125 23.691406 20.808594 23.570312 C 20.566406 25.042969 18.898438 26.175781 16.867188 26.175781 C 14.839844 26.175781 13.171875 25.042969 12.929688 23.570312 Z M 26.820312 23.570312 C 26.800781 23.691406 26.792969 23.816406 26.792969 23.941406 C 26.792969 25.589844 28.5625 26.917969 30.761719 26.917969 C 32.960938 26.917969 34.730469 25.589844 34.730469 23.941406 C 34.730469 23.816406 34.71875 23.691406 34.699219 23.570312 C 34.457031 25.042969 32.792969 26.175781 30.761719 26.175781 C 28.730469 26.175781 27.066406 25.042969 26.820312 23.570312 Z M 26.820312 23.570312 "/>
<path style=" stroke:none;fill-rule:nonzero;fill:rgb(0%,0%,0%);fill-opacity:0.235294;" d="M 16.867188 20.21875 C 14.667969 20.21875 12.898438 21.546875 12.898438 23.199219 C 12.898438 23.367188 12.917969 23.53125 12.953125 23.695312 C 13.269531 22.28125 14.894531 21.214844 16.867188 21.214844 C 18.84375 21.214844 20.46875 22.28125 20.785156 23.695312 C 20.820312 23.53125 20.839844 23.367188 20.839844 23.199219 C 20.839844 21.546875 19.066406 20.21875 16.867188 20.21875 Z M 30.761719 20.21875 C 28.5625 20.21875 26.792969 21.546875 26.792969 23.199219 C 26.792969 23.367188 26.808594 23.53125 26.847656 23.695312 C 27.160156 22.28125 28.789062 21.214844 30.761719 21.214844 C 32.734375 21.214844 34.363281 22.28125 34.675781 23.695312 C 34.710938 23.53125 34.730469 23.367188 34.730469 23.199219 C 34.730469 21.546875 32.960938 20.21875 30.761719 20.21875 Z M 9.921875 23.199219 L 9.921875 24.191406 C 9.921875 24.207031 9.921875 24.226562 9.921875 24.246094 C 9.960938 27.519531 13.042969 30.144531 16.867188 30.144531 C 19.347656 30.144531 22.824219 28.96875 22.824219 26.175781 C 22.824219 25.625 23.265625 25.183594 23.816406 25.183594 C 24.363281 25.183594 24.808594 25.625 24.808594 26.175781 C 24.808594 28.96875 28.28125 30.144531 30.761719 30.144531 C 34.585938 30.144531 37.671875 27.519531 37.707031 24.246094 C 37.707031 24.226562 37.707031 24.207031 37.707031 24.191406 L 37.707031 23.199219 C 37.707031 23.214844 37.707031 23.234375 37.707031 23.253906 C 37.671875 26.527344 34.585938 29.152344 30.761719 29.152344 C 28.28125 29.152344 24.808594 27.976562 24.808594 25.183594 C 24.808594 24.632812 24.363281 24.191406 23.816406 24.191406 C 23.265625 24.191406 22.824219 24.632812 22.824219 25.183594 C 22.824219 27.976562 19.347656 29.152344 16.867188 29.152344 C 13.042969 29.152344 9.960938 26.527344 9.921875 23.253906 C 9.921875 23.234375 9.921875 23.214844 9.921875 23.199219 Z M 9.921875 23.199219 "/>
<path style="fill:none;stroke-width:3;stroke-linecap:round;stroke-linejoin:round;stroke:rgb(12.941177%,12.941177%,12.941177%);stroke-opacity:1;stroke-miterlimit:4;" d="M 126.987873 -31.100895 C 115.280658 -31.100895 105.823228 -21.643465 105.823228 -9.936249 L 105.823228 32.434704 C 105.823228 32.601355 105.823228 32.809669 105.823228 33.017982 C 106.239855 67.931315 139.111715 95.928641 179.899487 95.928641 C 206.355294 95.928641 243.435086 83.388172 243.435086 53.59935 C 243.435086 47.724911 248.14297 43.017027 254.017409 43.017027 C 259.850186 43.017027 264.599732 47.724911 264.599732 53.59935 C 264.599732 83.388172 301.637862 95.928641 328.093669 95.928641 C 368.88144 95.928641 401.794964 67.931315 402.169928 33.017982 C 402.169928 32.809669 402.169928 32.601355 402.169928 32.434704 L 402.169928 -9.936249 C 402.169928 -21.643465 392.712498 -31.100895 381.005282 -31.100895 L 328.093669 -31.100895 C 306.054107 -31.100895 286.347655 -22.935008 272.765619 -9.936249 L 235.227537 -9.936249 C 221.687163 -22.935008 201.939049 -31.100895 179.899487 -31.100895 Z M 179.899487 0.646073 C 203.355581 0.646073 222.270441 14.811387 222.270441 32.434704 C 222.270441 50.016359 203.355581 64.181673 179.899487 64.181673 C 156.443394 64.181673 137.570196 50.016359 137.570196 32.434704 C 137.570196 14.811387 156.443394 0.646073 179.899487 0.646073 Z M 328.093669 0.646073 C 351.549762 0.646073 370.42296 14.811387 370.42296 32.434704 C 370.42296 50.016359 351.549762 64.181673 328.093669 64.181673 C 304.637575 64.181673 285.764378 50.016359 285.764378 32.434704 C 285.764378 14.811387 304.637575 0.646073 328.093669 0.646073 Z M 328.093669 0.646073 " transform="matrix(0.093759,0,0,0.093759,0,20.158175)"/>
</g>
</svg>
